source/img/logo-text.svg

<svg xmlns="http://www.w3.org/2000/svg" width="102" height="19" fill="none"><g fill="#111" clip-path="url(#a)"><path d="M1.42523 17.3435C.530294 16.0812.0860396 14.5677.160754 13.0358V6.65115C.0523784 5.10273.468815 3.56245 1.3462 2.26653c.86933-1 2.21283-1.461537 4.18858-1.461537 1.97574 0 3.24021.461537 4.03051 1.307697.85801 1.07171 1.28011 2.41366 1.18541 3.76923v1.53846H6.87828V5.65115c.03128-.52327-.04946-1.04716-.23709-1.53846-.10029-.19832-.25924-.3629-.45642-.47257-.19717-.10966-.42354-.1594-.64999-.14282-.55321 0-.94836.15385-1.10642.53846-.17878.54656-.259 1.11912-.23709 1.69231v8.23073c-.04174.5562.06727 1.1132.31612 1.6154.15806.3846.55321.5385 1.10642.5385.5532 0 .86932-.1539 1.02738-.5385.17969-.5198.26004-1.0673.23709-1.6154v-1.8461h3.87242v1.5384c.0804 1.3777-.3392 2.7391-1.18541 3.8462-.7903.9231-2.1338 1.3846-4.03051 1.3846-1.89672-.0769-3.31925-.5384-4.10955-1.5384ZM15.4135 1.03577h4.5047l3.3192 17.53843h-3.6353l-.6323-3.6923h-2.608l-.6322 3.6923h-3.7144l3.3983-17.53843Zm3.2402 11.53843-.9483-6.84613-.9484 6.84613h1.8967ZM26.0034 3.95884h-2.687V1.03577h9.4046v2.84615h-2.687V18.5742h-4.0306V3.95884ZM39.9127 1.03577h6.9546v1.84615h-4.5047v5.76923h3.6354v1.76925h-3.6354v6.4615h4.5047v1.7693h-7.0336V1.03577h.079ZM48.9221 1.03577h1.7386l5.137 11.61543V1.03577h2.0547V18.5742h-1.5806L51.0559 6.57423V18.5742h-2.1338V1.03577ZM60.2234 1.03577h6.9546v1.84615h-4.5047v5.76923h3.6353v1.76925h-3.6353v6.4615h4.5047v1.7693h-6.9546V1.03577ZM69.2327 1.03577h3.6354c1.4301-.096153 2.8513.28358 4.0305 1.07692.8694.69231 1.2645 1.92308 1.2645 3.53846 0 2.23077-.7113 3.61539-2.2128 4.07693l2.5289 8.76922h-2.4499l-2.3709-8.2308h-1.9757v8.2308h-2.529V1.03577h.079Zm3.4774 7.53846c.8147.06535 1.6268-.15271 2.2918-.61538.4742-.38462.7113-1.15385.7113-2.3077.0219-.57319-.0583-1.14575-.2371-1.6923-.1779-.39219-.4834-.71655-.8693-.92308-.5444-.24143-1.1419-.34717-1.7387-.30769h-1.1064v5.76923h.9484v.07692ZM81.3243 17.2665c-.8216-1.3449-1.2072-2.8999-1.1065-4.4615V6.95884c-.0194-1.11474.1134-2.22705.3952-3.30769.2644-.80753.7914-1.50948 1.5016-2 .8824-.50841 1.9003-.749424 2.9241-.692309 1.6596 0 2.845.384619 3.5563 1.230769.8182 1.1173 1.2096 2.47776 1.1064 3.84615v.61539h-2.3709v-.53846c.0036-.64424-.0493-1.28759-.158-1.92308-.0667-.40158-.294-.76113-.6323-1-.4442-.28379-.9714-.41883-1.5015-.38462-.5667-.03534-1.1275.12844-1.5806.46154-.1859.15248-.3379.34028-.4466.55191-.1087.21163-.1719.44263-.1857.67886-.1041.68768-.157 1.38181-.158 2.07693v6.53847c-.0583.9961.1034 1.9929.4741 2.9231.3162.6153.9484.8461 1.8968.8461.3744.0454.7543-.018 1.0918-.1822.3375-.1643.6175-.422.8049-.7409.4175-.9727.6065-2.0239.5532-3.0769v-1.2308h-2.2919V9.88192h4.5837v8.69228h-1.5805l-.2371-2c-.2072.6703-.6387 1.2539-1.2258 1.6581-.5871.4042-1.2961.6058-2.0145.5727-.653.0374-1.3053-.0836-1.8984-.3521-.5931-.2685-1.1085-.6762-1.4998-1.1864ZM94.8384 12.4204 90.9659 1.11269h2.3709l2.766 8.46153 2.6871-8.46153h2.3711L97.2883 12.4204v6.1538h-2.3709v-6.1538h-.079Z"/></g><defs><clipPath id="a"><path fill="#fff" d="M.160744.804993h101v18h-101z"/></clipPath></defs></svg>

<svg width="102" height="19" viewBox="0 0 102 19" fill="none" xmlns="http://www.w3.org/2000/svg">
<g clip-path="url(#clip0_135_3364)">
<path d="M1.42523 17.3435C0.530294 16.0812 0.0860396 14.5677 0.160754 13.0358V6.65115C0.0523784 5.10273 0.468815 3.56245 1.3462 2.26653C2.21553 1.26653 3.55903 0.804993 5.53478 0.804993C7.51052 0.804993 8.77499 1.26653 9.56529 2.11269C10.4233 3.1844 10.8454 4.52635 10.7507 5.88192V7.42038H6.87828V5.65115C6.90956 5.12788 6.82882 4.60399 6.64119 4.11269C6.5409 3.91437 6.38195 3.74979 6.18477 3.64012C5.9876 3.53046 5.76123 3.48072 5.53478 3.4973C4.98157 3.4973 4.58642 3.65115 4.42836 4.03576C4.24958 4.58232 4.16936 5.15488 4.19127 5.72807V13.9588C4.14953 14.515 4.25854 15.072 4.50739 15.5742C4.66545 15.9588 5.0606 16.1127 5.61381 16.1127C6.16701 16.1127 6.48313 15.9588 6.64119 15.5742C6.82088 15.0544 6.90123 14.5069 6.87828 13.9588V12.1127H10.7507V13.6511C10.8311 15.0288 10.4115 16.3902 9.56529 17.4973C8.77499 18.4204 7.43149 18.8819 5.53478 18.8819C3.63806 18.805 2.21553 18.3435 1.42523 17.3435Z" fill="#111111"/>
<path d="M15.4135 1.03577H19.9182L23.2374 18.5742H19.6021L18.9698 14.8819H16.3618L15.7296 18.5742H12.0152L15.4135 1.03577ZM18.6537 12.5742L17.7054 5.72807L16.757 12.5742H18.6537Z" fill="#111111"/>
<path d="M26.0034 3.95884H23.3164V1.03577H32.721V3.88192H30.034V18.5742H26.0034V3.95884Z" fill="#111111"/>
<path d="M39.9127 1.03577H46.8673V2.88192H42.3626V8.65115H45.998V10.4204H42.3626V16.8819H46.8673V18.6512H39.8337V1.03577H39.9127Z" fill="#111111"/>
<path d="M48.9221 1.03577H50.6607L55.7977 12.6512V1.03577H57.8524V18.5742H56.2718L51.0559 6.57423V18.5742H48.9221V1.03577Z" fill="#111111"/>
<path d="M60.2234 1.03577H67.178V2.88192H62.6733V8.65115H66.3086V10.4204H62.6733V16.8819H67.178V18.6512H60.2234V1.03577Z" fill="#111111"/>
<path d="M69.2327 1.03577H72.8681C74.2982 0.939617 75.7194 1.31935 76.8986 2.11269C77.768 2.805 78.1631 4.03577 78.1631 5.65115C78.1631 7.88192 77.4518 9.26654 75.9503 9.72808L78.4792 18.4973H76.0293L73.6584 10.2665H71.6827V18.4973H69.1537V1.03577H69.2327ZM72.7101 8.57423C73.5248 8.63958 74.3369 8.42152 75.0019 7.95885C75.4761 7.57423 75.7132 6.805 75.7132 5.65115C75.7351 5.07796 75.6549 4.5054 75.4761 3.95885C75.2982 3.56666 74.9927 3.2423 74.6068 3.03577C74.0624 2.79434 73.4649 2.6886 72.8681 2.72808H71.7617V8.49731H72.7101V8.57423Z" fill="#111111"/>
<path d="M81.3243 17.2665C80.5027 15.9216 80.1171 14.3666 80.2178 12.805V6.95884C80.1984 5.8441 80.3312 4.73179 80.613 3.65115C80.8774 2.84362 81.4044 2.14167 82.1146 1.65115C82.997 1.14274 84.0149 0.901726 85.0387 0.958841C86.6983 0.958841 87.8837 1.34346 88.595 2.18961C89.4132 3.30691 89.8046 4.66737 89.7014 6.03576V6.65115H87.3305V6.11269C87.3341 5.46845 87.2812 4.8251 87.1725 4.18961C87.1058 3.78803 86.8785 3.42848 86.5402 3.18961C86.096 2.90582 85.5688 2.77078 85.0387 2.80499C84.472 2.76965 83.9112 2.93343 83.4581 3.26653C83.2722 3.41901 83.1202 3.60681 83.0115 3.81844C82.9028 4.03007 82.8396 4.26107 82.8258 4.4973C82.7217 5.18498 82.6688 5.87911 82.6678 6.57423V13.1127C82.6095 14.1088 82.7712 15.1056 83.1419 16.0358C83.4581 16.6511 84.0903 16.8819 85.0387 16.8819C85.4131 16.9273 85.793 16.8639 86.1305 16.6997C86.468 16.5354 86.748 16.2777 86.9354 15.9588C87.3529 14.9861 87.5419 13.9349 87.4886 12.8819V11.6511H85.1967V9.88192H89.7804V18.5742H88.1999L87.9628 16.5742C87.7556 17.2445 87.3241 17.8281 86.737 18.2323C86.1499 18.6365 85.4409 18.8381 84.7225 18.805C84.0695 18.8424 83.4172 18.7214 82.8241 18.4529C82.231 18.1844 81.7156 17.7767 81.3243 17.2665V17.2665Z" fill="#111111"/>
<path d="M94.8384 12.4204L90.9659 1.11269H93.3368L96.1028 9.57422L98.7899 1.11269H101.161L97.2883 12.4204V18.5742H94.9174V12.4204H94.8384Z" fill="#111111"/>
</g>
<defs>
<clipPath id="clip0_135_3364">
<rect width="101" height="18" fill="white" transform="translate(0.160744 0.804993)"/>
</clipPath>
</defs>
</svg>
